X: 35011
T: Roland's Return
R: jig
M: 6/8
K: Dminor
FEF AFF|cFF AFF|G2 A Bcd|fed cAG|
FEF AFF|cFF AGF|G2 A BAG|AFD D2:|
d2 e fed|e^cA A=Bc|d2 e fed|agf gfe|
d2 e fed|e^cA AGF|G2 A BAG|AFD D2 A|
d2 e fed|e^cA A=Bc|d2 e fef|afd def|
agf gfe|fed cAF|g2 A BAG|AFD D2||

